**kern
*staff1
*I"
!!pagebreak:original
*clefG2
*k[b-]
*M3/4
8cc\L
8ee\J
=1
8aa\
8r
4r
4gg\
=2
2b-\
8b-\L
8ee\J
=3
8gg\
8r
4r
4ff\
=4
2a/
8a/L
8b-/J
=5
8dd\L
8cc\
8bn\
8cc\
8dd\
8cc\J
=6
8bn\L
8cc\
8dd\
8ee\
8ff\
8gg\J
=7
8bb-\L
8aa\
8ee\
8gg\
8ff\
8dd\J
=8
4cc\
=
*-
